;Gcode generated by ChiliPeppr / Laserweb Three2Gcode;
G21 ;mm
G90
G0 F2000 X0.000 Y0.000
M3
G1 F3200 X100.000 Y0.000 S80
G1 F3200 X100.000 Y80.000 S80
G1 F3200 X0.000 Y80.000 S80
G1 F3200 X0.000 Y0.000 S80
M5
G0 F2000 X20.925 Y17.330
M3
G1 F3200 X20.914 Y17.760 S80
G1 F3200 X20.883 Y18.190 S80
G1 F3200 X20.830 Y18.617 S80
G1 F3200 X20.756 Y19.041 S80
G1 F3200 X20.662 Y19.461 S80
G1 F3200 X20.547 Y19.876 S80
G1 F3200 X20.412 Y20.285 S80
G1 F3200 X20.257 Y20.687 S80
G1 F3200 X20.083 Y21.081 S80
G1 F3200 X19.889 Y21.465 S80
G1 F3200 X19.677 Y21.840 S80
G1 F3200 X19.447 Y22.204 S80
G1 F3200 X19.199 Y22.556 S80
G1 F3200 X18.934 Y22.895 S80
G1 F3200 X18.652 Y23.221 S80
G1 F3200 X18.356 Y23.533 S80
G1 F3200 X18.044 Y23.830 S80
G1 F3200 X17.718 Y24.111 S80
G1 F3200 X17.378 Y24.376 S80
G1 F3200 X17.026 Y24.624 S80
G1 F3200 X16.662 Y24.854 S80
G1 F3200 X16.288 Y25.066 S80
G1 F3200 X15.903 Y25.260 S80
G1 F3200 X15.510 Y25.435 S80
G1 F3200 X15.108 Y25.590 S80
G1 F3200 X14.699 Y25.725 S80
G1 F3200 X14.284 Y25.839 S80
G1 F3200 X13.864 Y25.934 S80
G1 F3200 X13.440 Y26.007 S80
G1 F3200 X13.012 Y26.060 S80
G1 F3200 X12.583 Y26.092 S80
G1 F3200 X12.152 Y26.102 S80
G1 F3200 X11.722 Y26.092 S80
G1 F3200 X11.293 Y26.060 S80
G1 F3200 X10.865 Y26.007 S80
G1 F3200 X10.441 Y25.934 S80
G1 F3200 X10.021 Y25.839 S80
G1 F3200 X9.606 Y25.725 S80
G1 F3200 X9.197 Y25.590 S80
G1 F3200 X8.795 Y25.435 S80
G1 F3200 X8.402 Y25.260 S80
G1 F3200 X8.017 Y25.066 S80
G1 F3200 X7.642 Y24.854 S80
G1 F3200 X7.279 Y24.624 S80
G1 F3200 X6.927 Y24.376 S80
G1 F3200 X6.587 Y24.111 S80
G1 F3200 X6.261 Y23.830 S80
G1 F3200 X5.949 Y23.533 S80
G1 F3200 X5.652 Y23.221 S80
G1 F3200 X5.371 Y22.895 S80
G1 F3200 X5.106 Y22.556 S80
G1 F3200 X4.858 Y22.204 S80
G1 F3200 X4.628 Y21.840 S80
G1 F3200 X4.416 Y21.465 S80
G1 F3200 X4.222 Y21.081 S80
G1 F3200 X4.048 Y20.687 S80
G1 F3200 X3.893 Y20.285 S80
G1 F3200 X3.758 Y19.876 S80
G1 F3200 X3.643 Y19.461 S80
G1 F3200 X3.548 Y19.041 S80
G1 F3200 X3.475 Y18.617 S80
G1 F3200 X3.422 Y18.190 S80
G1 F3200 X3.390 Y17.760 S80
G1 F3200 X3.380 Y17.330 S80
G1 F3200 X3.390 Y16.899 S80
G1 F3200 X3.422 Y16.470 S80
G1 F3200 X3.475 Y16.043 S80
G1 F3200 X3.548 Y15.618 S80
G1 F3200 X3.643 Y15.198 S80
G1 F3200 X3.758 Y14.783 S80
G1 F3200 X3.893 Y14.374 S80
G1 F3200 X4.048 Y13.973 S80
G1 F3200 X4.222 Y13.579 S80
G1 F3200 X4.416 Y13.194 S80
G1 F3200 X4.628 Y12.820 S80
G1 F3200 X4.858 Y12.456 S80
G1 F3200 X5.106 Y12.104 S80
G1 F3200 X5.371 Y11.765 S80
G1 F3200 X5.652 Y11.438 S80
G1 F3200 X5.949 Y11.127 S80
G1 F3200 X6.261 Y10.830 S80
G1 F3200 X6.587 Y10.548 S80
G1 F3200 X6.927 Y10.284 S80
G1 F3200 X7.279 Y10.036 S80
G1 F3200 X7.642 Y9.805 S80
G1 F3200 X8.017 Y9.593 S80
G1 F3200 X8.402 Y9.399 S80
G1 F3200 X8.795 Y9.225 S80
G1 F3200 X9.197 Y9.070 S80
G1 F3200 X9.606 Y8.935 S80
G1 F3200 X10.021 Y8.820 S80
G1 F3200 X10.441 Y8.726 S80
G1 F3200 X10.865 Y8.652 S80
G1 F3200 X11.293 Y8.599 S80
G1 F3200 X11.722 Y8.568 S80
G1 F3200 X12.152 Y8.557 S80
G1 F3200 X12.583 Y8.568 S80
G1 F3200 X13.012 Y8.599 S80
G1 F3200 X13.440 Y8.652 S80
G1 F3200 X13.864 Y8.726 S80
G1 F3200 X14.284 Y8.820 S80
G1 F3200 X14.699 Y8.935 S80
G1 F3200 X15.108 Y9.070 S80
G1 F3200 X15.510 Y9.225 S80
G1 F3200 X15.903 Y9.399 S80
G1 F3200 X16.288 Y9.593 S80
G1 F3200 X16.662 Y9.805 S80
G1 F3200 X17.026 Y10.036 S80
G1 F3200 X17.378 Y10.284 S80
G1 F3200 X17.718 Y10.548 S80
G1 F3200 X18.044 Y10.830 S80
G1 F3200 X18.356 Y11.127 S80
G1 F3200 X18.652 Y11.438 S80
G1 F3200 X18.934 Y11.765 S80
G1 F3200 X19.199 Y12.104 S80
G1 F3200 X19.447 Y12.456 S80
G1 F3200 X19.677 Y12.820 S80
G1 F3200 X19.889 Y13.194 S80
G1 F3200 X20.083 Y13.579 S80
G1 F3200 X20.257 Y13.973 S80
G1 F3200 X20.412 Y14.374 S80
G1 F3200 X20.547 Y14.783 S80
G1 F3200 X20.662 Y15.198 S80
G1 F3200 X20.756 Y15.618 S80
G1 F3200 X20.830 Y16.043 S80
G1 F3200 X20.883 Y16.470 S80
G1 F3200 X20.914 Y16.899 S80
G1 F3200 X20.925 Y17.330 S80
M5
G0 F2000 X38.199 Y17.330
M3
G1 F3200 X38.191 Y17.634 S80
G1 F3200 X38.169 Y17.938 S80
G1 F3200 X38.132 Y18.240 S80
G1 F3200 X38.080 Y18.540 S80
G1 F3200 X38.013 Y18.837 S80
G1 F3200 X37.932 Y19.131 S80
G1 F3200 X37.836 Y19.420 S80
G1 F3200 X37.727 Y19.704 S80
G1 F3200 X37.603 Y19.983 S80
G1 F3200 X37.466 Y20.255 S80
G1 F3200 X37.316 Y20.520 S80
G1 F3200 X37.153 Y20.777 S80
G1 F3200 X36.978 Y21.026 S80
G1 F3200 X36.790 Y21.266 S80
G1 F3200 X36.592 Y21.497 S80
G1 F3200 X36.382 Y21.717 S80
G1 F3200 X36.161 Y21.927 S80
G1 F3200 X35.930 Y22.126 S80
G1 F3200 X35.690 Y22.314 S80
G1 F3200 X35.441 Y22.489 S80
G1 F3200 X35.184 Y22.652 S80
G1 F3200 X34.919 Y22.802 S80
G1 F3200 X34.647 Y22.939 S80
G1 F3200 X34.369 Y23.062 S80
G1 F3200 X34.084 Y23.172 S80
G1 F3200 X33.795 Y23.267 S80
G1 F3200 X33.502 Y23.349 S80
G1 F3200 X33.205 Y23.415 S80
G1 F3200 X32.904 Y23.468 S80
G1 F3200 X32.602 Y23.505 S80
G1 F3200 X32.299 Y23.527 S80
G1 F3200 X31.994 Y23.535 S80
G1 F3200 X31.690 Y23.527 S80
G1 F3200 X31.386 Y23.505 S80
G1 F3200 X31.084 Y23.468 S80
G1 F3200 X30.784 Y23.415 S80
G1 F3200 X30.486 Y23.349 S80
G1 F3200 X30.193 Y23.267 S80
G1 F3200 X29.904 Y23.172 S80
G1 F3200 X29.620 Y23.062 S80
G1 F3200 X29.341 Y22.939 S80
G1 F3200 X29.069 Y22.802 S80
G1 F3200 X28.804 Y22.652 S80
G1 F3200 X28.547 Y22.489 S80
G1 F3200 X28.298 Y22.314 S80
G1 F3200 X28.058 Y22.126 S80
G1 F3200 X27.827 Y21.927 S80
G1 F3200 X27.607 Y21.717 S80
G1 F3200 X27.397 Y21.497 S80
G1 F3200 X27.198 Y21.266 S80
G1 F3200 X27.010 Y21.026 S80
G1 F3200 X26.835 Y20.777 S80
G1 F3200 X26.672 Y20.520 S80
G1 F3200 X26.522 Y20.255 S80
G1 F3200 X26.385 Y19.983 S80
G1 F3200 X26.261 Y19.704 S80
G1 F3200 X26.152 Y19.420 S80
G1 F3200 X26.056 Y19.131 S80
G1 F3200 X25.975 Y18.837 S80
G1 F3200 X25.908 Y18.540 S80
G1 F3200 X25.856 Y18.240 S80
G1 F3200 X25.819 Y17.938 S80
G1 F3200 X25.797 Y17.634 S80
G1 F3200 X25.789 Y17.330 S80
G1 F3200 X25.797 Y17.025 S80
G1 F3200 X25.819 Y16.722 S80
G1 F3200 X25.856 Y16.419 S80
G1 F3200 X25.908 Y16.119 S80
G1 F3200 X25.975 Y15.822 S80
G1 F3200 X26.056 Y15.529 S80
G1 F3200 X26.152 Y15.239 S80
G1 F3200 X26.261 Y14.955 S80
G1 F3200 X26.385 Y14.677 S80
G1 F3200 X26.522 Y14.405 S80
G1 F3200 X26.672 Y14.140 S80
G1 F3200 X26.835 Y13.883 S80
G1 F3200 X27.010 Y13.634 S80
G1 F3200 X27.198 Y13.393 S80
G1 F3200 X27.397 Y13.163 S80
G1 F3200 X27.607 Y12.942 S80
G1 F3200 X27.827 Y12.732 S80
G1 F3200 X28.058 Y12.533 S80
G1 F3200 X28.298 Y12.346 S80
G1 F3200 X28.547 Y12.171 S80
G1 F3200 X28.804 Y12.008 S80
G1 F3200 X29.069 Y11.858 S80
G1 F3200 X29.341 Y11.721 S80
G1 F3200 X29.620 Y11.597 S80
G1 F3200 X29.904 Y11.488 S80
G1 F3200 X30.193 Y11.392 S80
G1 F3200 X30.486 Y11.311 S80
G1 F3200 X30.784 Y11.244 S80
G1 F3200 X31.084 Y11.192 S80
G1 F3200 X31.386 Y11.155 S80
G1 F3200 X31.690 Y11.132 S80
G1 F3200 X31.994 Y11.125 S80
G1 F3200 X32.299 Y11.132 S80
G1 F3200 X32.602 Y11.155 S80
G1 F3200 X32.904 Y11.192 S80
G1 F3200 X33.205 Y11.244 S80
G1 F3200 X33.502 Y11.311 S80
G1 F3200 X33.795 Y11.392 S80
G1 F3200 X34.084 Y11.488 S80
G1 F3200 X34.369 Y11.597 S80
G1 F3200 X34.647 Y11.721 S80
G1 F3200 X34.919 Y11.858 S80
G1 F3200 X35.184 Y12.008 S80
G1 F3200 X35.441 Y12.171 S80
G1 F3200 X35.690 Y12.346 S80
G1 F3200 X35.930 Y12.533 S80
G1 F3200 X36.161 Y12.732 S80
G1 F3200 X36.382 Y12.942 S80
G1 F3200 X36.592 Y13.163 S80
G1 F3200 X36.790 Y13.393 S80
G1 F3200 X36.978 Y13.634 S80
G1 F3200 X37.153 Y13.883 S80
G1 F3200 X37.316 Y14.140 S80
G1 F3200 X37.466 Y14.405 S80
G1 F3200 X37.603 Y14.677 S80
G1 F3200 X37.727 Y14.955 S80
G1 F3200 X37.836 Y15.239 S80
G1 F3200 X37.932 Y15.529 S80
G1 F3200 X38.013 Y15.822 S80
G1 F3200 X38.080 Y16.119 S80
G1 F3200 X38.132 Y16.419 S80
G1 F3200 X38.169 Y16.722 S80
G1 F3200 X38.191 Y17.025 S80
G1 F3200 X38.199 Y17.330 S80
M5
G0 F2000 X38.197 Y35.543
M3
G1 F3200 X38.190 Y35.847 S80
G1 F3200 X38.167 Y36.151 S80
G1 F3200 X38.130 Y36.453 S80
G1 F3200 X38.078 Y36.753 S80
G1 F3200 X38.011 Y37.050 S80
G1 F3200 X37.930 Y37.343 S80
G1 F3200 X37.835 Y37.632 S80
G1 F3200 X37.725 Y37.916 S80
G1 F3200 X37.602 Y38.195 S80
G1 F3200 X37.465 Y38.467 S80
G1 F3200 X37.315 Y38.732 S80
G1 F3200 X37.152 Y38.989 S80
G1 F3200 X36.976 Y39.238 S80
G1 F3200 X36.789 Y39.478 S80
G1 F3200 X36.590 Y39.708 S80
G1 F3200 X36.380 Y39.929 S80
G1 F3200 X36.160 Y40.139 S80
G1 F3200 X35.929 Y40.338 S80
G1 F3200 X35.689 Y40.525 S80
G1 F3200 X35.440 Y40.700 S80
G1 F3200 X35.183 Y40.863 S80
G1 F3200 X34.918 Y41.013 S80
G1 F3200 X34.646 Y41.150 S80
G1 F3200 X34.368 Y41.274 S80
G1 F3200 X34.084 Y41.383 S80
G1 F3200 X33.795 Y41.479 S80
G1 F3200 X33.501 Y41.560 S80
G1 F3200 X33.204 Y41.627 S80
G1 F3200 X32.904 Y41.679 S80
G1 F3200 X32.602 Y41.716 S80
G1 F3200 X32.298 Y41.738 S80
G1 F3200 X31.994 Y41.746 S80
G1 F3200 X31.690 Y41.738 S80
G1 F3200 X31.386 Y41.716 S80
G1 F3200 X31.084 Y41.679 S80
G1 F3200 X30.784 Y41.627 S80
G1 F3200 X30.487 Y41.560 S80
G1 F3200 X30.193 Y41.479 S80
G1 F3200 X29.904 Y41.383 S80
G1 F3200 X29.620 Y41.274 S80
G1 F3200 X29.342 Y41.150 S80
G1 F3200 X29.070 Y41.013 S80
G1 F3200 X28.805 Y40.863 S80
G1 F3200 X28.548 Y40.700 S80
G1 F3200 X28.299 Y40.525 S80
G1 F3200 X28.059 Y40.338 S80
G1 F3200 X27.828 Y40.139 S80
G1 F3200 X27.608 Y39.929 S80
G1 F3200 X27.398 Y39.708 S80
G1 F3200 X27.199 Y39.478 S80
G1 F3200 X27.012 Y39.238 S80
G1 F3200 X26.836 Y38.989 S80
G1 F3200 X26.673 Y38.732 S80
G1 F3200 X26.523 Y38.467 S80
G1 F3200 X26.386 Y38.195 S80
G1 F3200 X26.263 Y37.916 S80
G1 F3200 X26.154 Y37.632 S80
G1 F3200 X26.058 Y37.343 S80
G1 F3200 X25.977 Y37.050 S80
G1 F3200 X25.910 Y36.753 S80
G1 F3200 X25.858 Y36.453 S80
G1 F3200 X25.821 Y36.151 S80
G1 F3200 X25.798 Y35.847 S80
G1 F3200 X25.791 Y35.543 S80
G1 F3200 X25.798 Y35.238 S80
G1 F3200 X25.821 Y34.935 S80
G1 F3200 X25.858 Y34.632 S80
G1 F3200 X25.910 Y34.332 S80
G1 F3200 X25.977 Y34.035 S80
G1 F3200 X26.058 Y33.742 S80
G1 F3200 X26.154 Y33.453 S80
G1 F3200 X26.263 Y33.169 S80
G1 F3200 X26.386 Y32.890 S80
G1 F3200 X26.523 Y32.618 S80
G1 F3200 X26.673 Y32.354 S80
G1 F3200 X26.836 Y32.096 S80
G1 F3200 X27.012 Y31.847 S80
G1 F3200 X27.199 Y31.607 S80
G1 F3200 X27.398 Y31.377 S80
G1 F3200 X27.608 Y31.156 S80
G1 F3200 X27.828 Y30.946 S80
G1 F3200 X28.059 Y30.748 S80
G1 F3200 X28.299 Y30.560 S80
G1 F3200 X28.548 Y30.385 S80
G1 F3200 X28.805 Y30.222 S80
G1 F3200 X29.070 Y30.072 S80
G1 F3200 X29.342 Y29.935 S80
G1 F3200 X29.620 Y29.812 S80
G1 F3200 X29.904 Y29.702 S80
G1 F3200 X30.193 Y29.607 S80
G1 F3200 X30.487 Y29.525 S80
G1 F3200 X30.784 Y29.459 S80
G1 F3200 X31.084 Y29.407 S80
G1 F3200 X31.386 Y29.369 S80
G1 F3200 X31.690 Y29.347 S80
G1 F3200 X31.994 Y29.339 S80
G1 F3200 X32.298 Y29.347 S80
G1 F3200 X32.602 Y29.369 S80
G1 F3200 X32.904 Y29.407 S80
G1 F3200 X33.204 Y29.459 S80
G1 F3200 X33.501 Y29.525 S80
G1 F3200 X33.795 Y29.607 S80
G1 F3200 X34.084 Y29.702 S80
G1 F3200 X34.368 Y29.812 S80
G1 F3200 X34.646 Y29.935 S80
G1 F3200 X34.918 Y30.072 S80
G1 F3200 X35.183 Y30.222 S80
G1 F3200 X35.440 Y30.385 S80
G1 F3200 X35.689 Y30.560 S80
G1 F3200 X35.929 Y30.748 S80
G1 F3200 X36.160 Y30.946 S80
G1 F3200 X36.380 Y31.156 S80
G1 F3200 X36.590 Y31.377 S80
G1 F3200 X36.789 Y31.607 S80
G1 F3200 X36.976 Y31.847 S80
G1 F3200 X37.152 Y32.096 S80
G1 F3200 X37.315 Y32.354 S80
G1 F3200 X37.465 Y32.618 S80
G1 F3200 X37.602 Y32.890 S80
G1 F3200 X37.725 Y33.169 S80
G1 F3200 X37.835 Y33.453 S80
G1 F3200 X37.930 Y33.742 S80
G1 F3200 X38.011 Y34.035 S80
G1 F3200 X38.078 Y34.332 S80
G1 F3200 X38.130 Y34.632 S80
G1 F3200 X38.167 Y34.935 S80
G1 F3200 X38.190 Y35.238 S80
G1 F3200 X38.197 Y35.543 S80
M5
G0 F2000 X18.354 Y35.543
M3
G1 F3200 X18.346 Y35.847 S80
G1 F3200 X18.324 Y36.150 S80
G1 F3200 X18.287 Y36.453 S80
G1 F3200 X18.235 Y36.752 S80
G1 F3200 X18.168 Y37.049 S80
G1 F3200 X18.087 Y37.343 S80
G1 F3200 X17.991 Y37.632 S80
G1 F3200 X17.882 Y37.916 S80
G1 F3200 X17.758 Y38.194 S80
G1 F3200 X17.622 Y38.466 S80
G1 F3200 X17.471 Y38.731 S80
G1 F3200 X17.309 Y38.988 S80
G1 F3200 X17.133 Y39.237 S80
G1 F3200 X16.946 Y39.477 S80
G1 F3200 X16.747 Y39.707 S80
G1 F3200 X16.537 Y39.928 S80
G1 F3200 X16.317 Y40.138 S80
G1 F3200 X16.087 Y40.336 S80
G1 F3200 X15.847 Y40.524 S80
G1 F3200 X15.598 Y40.699 S80
G1 F3200 X15.341 Y40.862 S80
G1 F3200 X15.076 Y41.012 S80
G1 F3200 X14.804 Y41.149 S80
G1 F3200 X14.526 Y41.272 S80
G1 F3200 X14.242 Y41.381 S80
G1 F3200 X13.953 Y41.477 S80
G1 F3200 X13.659 Y41.558 S80
G1 F3200 X13.362 Y41.625 S80
G1 F3200 X13.062 Y41.677 S80
G1 F3200 X12.760 Y41.714 S80
G1 F3200 X12.457 Y41.737 S80
G1 F3200 X12.152 Y41.744 S80
G1 F3200 X11.848 Y41.737 S80
G1 F3200 X11.545 Y41.714 S80
G1 F3200 X11.242 Y41.677 S80
G1 F3200 X10.943 Y41.625 S80
G1 F3200 X10.646 Y41.558 S80
G1 F3200 X10.352 Y41.477 S80
G1 F3200 X10.063 Y41.381 S80
G1 F3200 X9.779 Y41.272 S80
G1 F3200 X9.501 Y41.149 S80
G1 F3200 X9.229 Y41.012 S80
G1 F3200 X8.964 Y40.862 S80
G1 F3200 X8.707 Y40.699 S80
G1 F3200 X8.458 Y40.524 S80
G1 F3200 X8.218 Y40.336 S80
G1 F3200 X7.988 Y40.138 S80
G1 F3200 X7.767 Y39.928 S80
G1 F3200 X7.557 Y39.707 S80
G1 F3200 X7.359 Y39.477 S80
G1 F3200 X7.171 Y39.237 S80
G1 F3200 X6.996 Y38.988 S80
G1 F3200 X6.833 Y38.731 S80
G1 F3200 X6.683 Y38.466 S80
G1 F3200 X6.546 Y38.194 S80
G1 F3200 X6.423 Y37.916 S80
G1 F3200 X6.314 Y37.632 S80
G1 F3200 X6.218 Y37.343 S80
G1 F3200 X6.137 Y37.049 S80
G1 F3200 X6.070 Y36.752 S80
G1 F3200 X6.018 Y36.453 S80
G1 F3200 X5.981 Y36.150 S80
G1 F3200 X5.958 Y35.847 S80
G1 F3200 X5.951 Y35.543 S80
G1 F3200 X5.958 Y35.238 S80
G1 F3200 X5.981 Y34.935 S80
G1 F3200 X6.018 Y34.633 S80
G1 F3200 X6.070 Y34.333 S80
G1 F3200 X6.137 Y34.036 S80
G1 F3200 X6.218 Y33.742 S80
G1 F3200 X6.314 Y33.453 S80
G1 F3200 X6.423 Y33.169 S80
G1 F3200 X6.546 Y32.891 S80
G1 F3200 X6.683 Y32.619 S80
G1 F3200 X6.833 Y32.354 S80
G1 F3200 X6.996 Y32.097 S80
G1 F3200 X7.171 Y31.848 S80
G1 F3200 X7.359 Y31.609 S80
G1 F3200 X7.557 Y31.378 S80
G1 F3200 X7.767 Y31.158 S80
G1 F3200 X7.988 Y30.948 S80
G1 F3200 X8.218 Y30.749 S80
G1 F3200 X8.458 Y30.562 S80
G1 F3200 X8.707 Y30.386 S80
G1 F3200 X8.964 Y30.224 S80
G1 F3200 X9.229 Y30.074 S80
G1 F3200 X9.501 Y29.937 S80
G1 F3200 X9.779 Y29.813 S80
G1 F3200 X10.063 Y29.704 S80
G1 F3200 X10.352 Y29.608 S80
G1 F3200 X10.646 Y29.527 S80
G1 F3200 X10.943 Y29.460 S80
G1 F3200 X11.242 Y29.408 S80
G1 F3200 X11.545 Y29.371 S80
G1 F3200 X11.848 Y29.349 S80
G1 F3200 X12.152 Y29.341 S80
G1 F3200 X12.457 Y29.349 S80
G1 F3200 X12.760 Y29.371 S80
G1 F3200 X13.062 Y29.408 S80
G1 F3200 X13.362 Y29.460 S80
G1 F3200 X13.659 Y29.527 S80
G1 F3200 X13.953 Y29.608 S80
G1 F3200 X14.242 Y29.704 S80
G1 F3200 X14.526 Y29.813 S80
G1 F3200 X14.804 Y29.937 S80
G1 F3200 X15.076 Y30.074 S80
G1 F3200 X15.341 Y30.224 S80
G1 F3200 X15.598 Y30.386 S80
G1 F3200 X15.847 Y30.562 S80
G1 F3200 X16.087 Y30.749 S80
G1 F3200 X16.317 Y30.948 S80
G1 F3200 X16.537 Y31.158 S80
G1 F3200 X16.747 Y31.378 S80
G1 F3200 X16.946 Y31.609 S80
G1 F3200 X17.133 Y31.848 S80
G1 F3200 X17.309 Y32.097 S80
G1 F3200 X17.471 Y32.354 S80
G1 F3200 X17.622 Y32.619 S80
G1 F3200 X17.758 Y32.891 S80
G1 F3200 X17.882 Y33.169 S80
G1 F3200 X17.991 Y33.453 S80
G1 F3200 X18.087 Y33.742 S80
G1 F3200 X18.168 Y34.036 S80
G1 F3200 X18.235 Y34.333 S80
G1 F3200 X18.287 Y34.633 S80
G1 F3200 X18.324 Y34.935 S80
G1 F3200 X18.346 Y35.238 S80
G1 F3200 X18.354 Y35.543 S80
M5
G0 F2000 X96.350 Y35.543
M3
G1 F3200 X96.333 Y36.230 S80
G1 F3200 X96.282 Y36.916 S80
G1 F3200 X96.198 Y37.599 S80
G1 F3200 X96.081 Y38.276 S80
G1 F3200 X95.930 Y38.947 S80
G1 F3200 X95.747 Y39.610 S80
G1 F3200 X95.531 Y40.263 S80
G1 F3200 X95.283 Y40.905 S80
G1 F3200 X95.005 Y41.533 S80
G1 F3200 X94.695 Y42.148 S80
G1 F3200 X94.357 Y42.746 S80
G1 F3200 X93.989 Y43.327 S80
G1 F3200 X93.593 Y43.889 S80
G1 F3200 X93.169 Y44.431 S80
G1 F3200 X92.720 Y44.952 S80
G1 F3200 X92.246 Y45.450 S80
G1 F3200 X91.748 Y45.924 S80
G1 F3200 X91.227 Y46.374 S80
G1 F3200 X90.685 Y46.797 S80
G1 F3200 X90.123 Y47.193 S80
G1 F3200 X89.542 Y47.561 S80
G1 F3200 X88.943 Y47.900 S80
G1 F3200 X88.329 Y48.209 S80
G1 F3200 X87.700 Y48.487 S80
G1 F3200 X87.059 Y48.735 S80
G1 F3200 X86.406 Y48.951 S80
G1 F3200 X85.743 Y49.134 S80
G1 F3200 X85.072 Y49.285 S80
G1 F3200 X84.394 Y49.402 S80
G1 F3200 X83.712 Y49.487 S80
G1 F3200 X83.026 Y49.537 S80
G1 F3200 X82.339 Y49.554 S80
G1 F3200 X81.651 Y49.537 S80
G1 F3200 X80.965 Y49.487 S80
G1 F3200 X80.283 Y49.402 S80
G1 F3200 X79.605 Y49.285 S80
G1 F3200 X78.934 Y49.134 S80
G1 F3200 X78.271 Y48.951 S80
G1 F3200 X77.618 Y48.735 S80
G1 F3200 X76.977 Y48.487 S80
G1 F3200 X76.348 Y48.209 S80
G1 F3200 X75.734 Y47.900 S80
G1 F3200 X75.135 Y47.561 S80
G1 F3200 X74.554 Y47.193 S80
G1 F3200 X73.992 Y46.797 S80
G1 F3200 X73.450 Y46.374 S80
G1 F3200 X72.929 Y45.924 S80
G1 F3200 X72.431 Y45.450 S80
G1 F3200 X71.957 Y44.952 S80
G1 F3200 X71.508 Y44.431 S80
G1 F3200 X71.084 Y43.889 S80
G1 F3200 X70.688 Y43.327 S80
G1 F3200 X70.321 Y42.746 S80
G1 F3200 X69.982 Y42.148 S80
G1 F3200 X69.672 Y41.533 S80
G1 F3200 X69.394 Y40.905 S80
G1 F3200 X69.146 Y40.263 S80
G1 F3200 X68.930 Y39.610 S80
G1 F3200 X68.747 Y38.947 S80
G1 F3200 X68.596 Y38.276 S80
G1 F3200 X68.479 Y37.599 S80
G1 F3200 X68.395 Y36.916 S80
G1 F3200 X68.344 Y36.230 S80
G1 F3200 X68.327 Y35.543 S80
G1 F3200 X68.344 Y34.855 S80
G1 F3200 X68.395 Y34.169 S80
G1 F3200 X68.479 Y33.487 S80
G1 F3200 X68.596 Y32.809 S80
G1 F3200 X68.747 Y32.138 S80
G1 F3200 X68.930 Y31.475 S80
G1 F3200 X69.146 Y30.822 S80
G1 F3200 X69.394 Y30.181 S80
G1 F3200 X69.672 Y29.552 S80
G1 F3200 X69.982 Y28.938 S80
G1 F3200 X70.321 Y28.339 S80
G1 F3200 X70.688 Y27.758 S80
G1 F3200 X71.084 Y27.196 S80
G1 F3200 X71.508 Y26.654 S80
G1 F3200 X71.957 Y26.133 S80
G1 F3200 X72.431 Y25.635 S80
G1 F3200 X72.929 Y25.161 S80
G1 F3200 X73.450 Y24.712 S80
G1 F3200 X73.992 Y24.289 S80
G1 F3200 X74.554 Y23.893 S80
G1 F3200 X75.135 Y23.525 S80
G1 F3200 X75.734 Y23.186 S80
G1 F3200 X76.348 Y22.876 S80
G1 F3200 X76.977 Y22.598 S80
G1 F3200 X77.618 Y22.350 S80
G1 F3200 X78.271 Y22.135 S80
G1 F3200 X78.934 Y21.951 S80
G1 F3200 X79.605 Y21.800 S80
G1 F3200 X80.283 Y21.683 S80
G1 F3200 X80.965 Y21.599 S80
G1 F3200 X81.651 Y21.548 S80
G1 F3200 X82.339 Y21.531 S80
G1 F3200 X83.026 Y21.548 S80
G1 F3200 X83.712 Y21.599 S80
G1 F3200 X84.394 Y21.683 S80
G1 F3200 X85.072 Y21.800 S80
G1 F3200 X85.743 Y21.951 S80
G1 F3200 X86.406 Y22.135 S80
G1 F3200 X87.059 Y22.350 S80
G1 F3200 X87.700 Y22.598 S80
G1 F3200 X88.329 Y22.876 S80
G1 F3200 X88.943 Y23.186 S80
G1 F3200 X89.542 Y23.525 S80
G1 F3200 X90.123 Y23.893 S80
G1 F3200 X90.685 Y24.289 S80
G1 F3200 X91.227 Y24.712 S80
G1 F3200 X91.748 Y25.161 S80
G1 F3200 X92.246 Y25.635 S80
G1 F3200 X92.720 Y26.133 S80
G1 F3200 X93.169 Y26.654 S80
G1 F3200 X93.593 Y27.196 S80
G1 F3200 X93.989 Y27.758 S80
G1 F3200 X94.357 Y28.339 S80
G1 F3200 X94.695 Y28.938 S80
G1 F3200 X95.005 Y29.552 S80
G1 F3200 X95.283 Y30.181 S80
G1 F3200 X95.531 Y30.822 S80
G1 F3200 X95.747 Y31.475 S80
G1 F3200 X95.930 Y32.138 S80
G1 F3200 X96.081 Y32.809 S80
G1 F3200 X96.198 Y33.487 S80
G1 F3200 X96.282 Y34.169 S80
G1 F3200 X96.333 Y34.855 S80
G1 F3200 X96.350 Y35.543 S80
M5
G0 F2000 X68.954 Y58.704
M3
G1 F3200 X68.942 Y59.195 S80
G1 F3200 X68.906 Y59.685 S80
G1 F3200 X68.845 Y60.173 S80
G1 F3200 X68.761 Y60.657 S80
G1 F3200 X68.654 Y61.137 S80
G1 F3200 X68.523 Y61.610 S80
G1 F3200 X68.369 Y62.077 S80
G1 F3200 X68.192 Y62.535 S80
G1 F3200 X67.993 Y62.984 S80
G1 F3200 X67.772 Y63.423 S80
G1 F3200 X67.530 Y63.851 S80
G1 F3200 X67.267 Y64.266 S80
G1 F3200 X66.984 Y64.668 S80
G1 F3200 X66.681 Y65.055 S80
G1 F3200 X66.361 Y65.427 S80
G1 F3200 X66.022 Y65.783 S80
G1 F3200 X65.666 Y66.122 S80
G1 F3200 X65.294 Y66.443 S80
G1 F3200 X64.906 Y66.745 S80
G1 F3200 X64.505 Y67.028 S80
G1 F3200 X64.090 Y67.291 S80
G1 F3200 X63.662 Y67.533 S80
G1 F3200 X63.223 Y67.754 S80
G1 F3200 X62.774 Y67.953 S80
G1 F3200 X62.316 Y68.130 S80
G1 F3200 X61.849 Y68.284 S80
G1 F3200 X61.376 Y68.415 S80
G1 F3200 X60.896 Y68.522 S80
G1 F3200 X60.412 Y68.606 S80
G1 F3200 X59.924 Y68.667 S80
G1 F3200 X59.434 Y68.703 S80
G1 F3200 X58.943 Y68.715 S80
G1 F3200 X58.452 Y68.703 S80
G1 F3200 X57.962 Y68.667 S80
G1 F3200 X57.474 Y68.606 S80
G1 F3200 X56.990 Y68.522 S80
G1 F3200 X56.511 Y68.415 S80
G1 F3200 X56.037 Y68.284 S80
G1 F3200 X55.571 Y68.130 S80
G1 F3200 X55.112 Y67.953 S80
G1 F3200 X54.663 Y67.754 S80
G1 F3200 X54.224 Y67.533 S80
G1 F3200 X53.797 Y67.291 S80
G1 F3200 X53.382 Y67.028 S80
G1 F3200 X52.980 Y66.745 S80
G1 F3200 X52.592 Y66.443 S80
G1 F3200 X52.220 Y66.122 S80
G1 F3200 X51.865 Y65.783 S80
G1 F3200 X51.526 Y65.427 S80
G1 F3200 X51.205 Y65.055 S80
G1 F3200 X50.903 Y64.668 S80
G1 F3200 X50.620 Y64.266 S80
G1 F3200 X50.357 Y63.851 S80
G1 F3200 X50.115 Y63.423 S80
G1 F3200 X49.894 Y62.984 S80
G1 F3200 X49.695 Y62.535 S80
G1 F3200 X49.518 Y62.077 S80
G1 F3200 X49.364 Y61.610 S80
G1 F3200 X49.233 Y61.137 S80
G1 F3200 X49.125 Y60.657 S80
G1 F3200 X49.041 Y60.173 S80
G1 F3200 X48.981 Y59.685 S80
G1 F3200 X48.945 Y59.195 S80
G1 F3200 X48.933 Y58.704 S80
G1 F3200 X48.945 Y58.213 S80
G1 F3200 X48.981 Y57.723 S80
G1 F3200 X49.041 Y57.235 S80
G1 F3200 X49.125 Y56.751 S80
G1 F3200 X49.233 Y56.272 S80
G1 F3200 X49.364 Y55.798 S80
G1 F3200 X49.518 Y55.332 S80
G1 F3200 X49.695 Y54.873 S80
G1 F3200 X49.894 Y54.424 S80
G1 F3200 X50.115 Y53.985 S80
G1 F3200 X50.357 Y53.558 S80
G1 F3200 X50.620 Y53.143 S80
G1 F3200 X50.903 Y52.741 S80
G1 F3200 X51.205 Y52.354 S80
G1 F3200 X51.526 Y51.982 S80
G1 F3200 X51.865 Y51.626 S80
G1 F3200 X52.220 Y51.287 S80
G1 F3200 X52.592 Y50.966 S80
G1 F3200 X52.980 Y50.664 S80
G1 F3200 X53.382 Y50.381 S80
G1 F3200 X53.797 Y50.118 S80
G1 F3200 X54.224 Y49.876 S80
G1 F3200 X54.663 Y49.655 S80
G1 F3200 X55.112 Y49.456 S80
G1 F3200 X55.571 Y49.279 S80
G1 F3200 X56.037 Y49.125 S80
G1 F3200 X56.511 Y48.994 S80
G1 F3200 X56.990 Y48.886 S80
G1 F3200 X57.474 Y48.802 S80
G1 F3200 X57.962 Y48.742 S80
G1 F3200 X58.452 Y48.706 S80
G1 F3200 X58.943 Y48.694 S80
G1 F3200 X59.434 Y48.706 S80
G1 F3200 X59.924 Y48.742 S80
G1 F3200 X60.412 Y48.802 S80
G1 F3200 X60.896 Y48.886 S80
G1 F3200 X61.376 Y48.994 S80
G1 F3200 X61.849 Y49.125 S80
G1 F3200 X62.316 Y49.279 S80
G1 F3200 X62.774 Y49.456 S80
G1 F3200 X63.223 Y49.655 S80
G1 F3200 X63.662 Y49.876 S80
G1 F3200 X64.090 Y50.118 S80
G1 F3200 X64.505 Y50.381 S80
G1 F3200 X64.906 Y50.664 S80
G1 F3200 X65.294 Y50.966 S80
G1 F3200 X65.666 Y51.287 S80
G1 F3200 X66.022 Y51.626 S80
G1 F3200 X66.361 Y51.982 S80
G1 F3200 X66.681 Y52.354 S80
G1 F3200 X66.984 Y52.741 S80
G1 F3200 X67.267 Y53.143 S80
G1 F3200 X67.530 Y53.558 S80
G1 F3200 X67.772 Y53.985 S80
G1 F3200 X67.993 Y54.424 S80
G1 F3200 X68.192 Y54.873 S80
G1 F3200 X68.369 Y55.332 S80
G1 F3200 X68.523 Y55.798 S80
G1 F3200 X68.654 Y56.272 S80
G1 F3200 X68.761 Y56.751 S80
G1 F3200 X68.845 Y57.235 S80
G1 F3200 X68.906 Y57.723 S80
G1 F3200 X68.942 Y58.213 S80
G1 F3200 X68.954 Y58.704 S80
M5
G0 F2000 X43.185 Y66.934
M3
G1 F3200 X43.175 Y67.338 S80
G1 F3200 X43.146 Y67.741 S80
G1 F3200 X43.096 Y68.141 S80
G1 F3200 X43.027 Y68.539 S80
G1 F3200 X42.939 Y68.934 S80
G1 F3200 X42.831 Y69.323 S80
G1 F3200 X42.704 Y69.706 S80
G1 F3200 X42.559 Y70.083 S80
G1 F3200 X42.395 Y70.453 S80
G1 F3200 X42.213 Y70.813 S80
G1 F3200 X42.014 Y71.165 S80
G1 F3200 X41.798 Y71.506 S80
G1 F3200 X41.566 Y71.836 S80
G1 F3200 X41.317 Y72.155 S80
G1 F3200 X41.053 Y72.461 S80
G1 F3200 X40.775 Y72.753 S80
G1 F3200 X40.482 Y73.032 S80
G1 F3200 X40.176 Y73.296 S80
G1 F3200 X39.858 Y73.544 S80
G1 F3200 X39.528 Y73.777 S80
G1 F3200 X39.186 Y73.993 S80
G1 F3200 X38.835 Y74.192 S80
G1 F3200 X38.474 Y74.373 S80
G1 F3200 X38.105 Y74.537 S80
G1 F3200 X37.728 Y74.682 S80
G1 F3200 X37.344 Y74.809 S80
G1 F3200 X36.955 Y74.917 S80
G1 F3200 X36.561 Y75.005 S80
G1 F3200 X36.163 Y75.074 S80
G1 F3200 X35.762 Y75.124 S80
G1 F3200 X35.359 Y75.154 S80
G1 F3200 X34.955 Y75.164 S80
G1 F3200 X34.552 Y75.154 S80
G1 F3200 X34.149 Y75.124 S80
G1 F3200 X33.748 Y75.074 S80
G1 F3200 X33.350 Y75.005 S80
G1 F3200 X32.956 Y74.917 S80
G1 F3200 X32.567 Y74.809 S80
G1 F3200 X32.183 Y74.682 S80
G1 F3200 X31.806 Y74.537 S80
G1 F3200 X31.437 Y74.373 S80
G1 F3200 X31.076 Y74.192 S80
G1 F3200 X30.725 Y73.993 S80
G1 F3200 X30.383 Y73.777 S80
G1 F3200 X30.053 Y73.544 S80
G1 F3200 X29.735 Y73.296 S80
G1 F3200 X29.429 Y73.032 S80
G1 F3200 X29.136 Y72.753 S80
G1 F3200 X28.858 Y72.461 S80
G1 F3200 X28.594 Y72.155 S80
G1 F3200 X28.345 Y71.836 S80
G1 F3200 X28.113 Y71.506 S80
G1 F3200 X27.897 Y71.165 S80
G1 F3200 X27.698 Y70.813 S80
G1 F3200 X27.516 Y70.453 S80
G1 F3200 X27.352 Y70.083 S80
G1 F3200 X27.207 Y69.706 S80
G1 F3200 X27.080 Y69.323 S80
G1 F3200 X26.972 Y68.934 S80
G1 F3200 X26.884 Y68.539 S80
G1 F3200 X26.815 Y68.141 S80
G1 F3200 X26.765 Y67.741 S80
G1 F3200 X26.736 Y67.338 S80
G1 F3200 X26.726 Y66.934 S80
G1 F3200 X26.736 Y66.530 S80
G1 F3200 X26.765 Y66.127 S80
G1 F3200 X26.815 Y65.726 S80
G1 F3200 X26.884 Y65.328 S80
G1 F3200 X26.972 Y64.934 S80
G1 F3200 X27.080 Y64.545 S80
G1 F3200 X27.207 Y64.161 S80
G1 F3200 X27.352 Y63.785 S80
G1 F3200 X27.516 Y63.415 S80
G1 F3200 X27.698 Y63.054 S80
G1 F3200 X27.897 Y62.703 S80
G1 F3200 X28.113 Y62.362 S80
G1 F3200 X28.345 Y62.031 S80
G1 F3200 X28.594 Y61.713 S80
G1 F3200 X28.858 Y61.407 S80
G1 F3200 X29.136 Y61.115 S80
G1 F3200 X29.429 Y60.836 S80
G1 F3200 X29.735 Y60.572 S80
G1 F3200 X30.053 Y60.324 S80
G1 F3200 X30.383 Y60.091 S80
G1 F3200 X30.725 Y59.875 S80
G1 F3200 X31.076 Y59.676 S80
G1 F3200 X31.437 Y59.494 S80
G1 F3200 X31.806 Y59.331 S80
G1 F3200 X32.183 Y59.185 S80
G1 F3200 X32.567 Y59.059 S80
G1 F3200 X32.956 Y58.951 S80
G1 F3200 X33.350 Y58.862 S80
G1 F3200 X33.748 Y58.793 S80
G1 F3200 X34.149 Y58.744 S80
G1 F3200 X34.552 Y58.714 S80
G1 F3200 X34.955 Y58.704 S80
G1 F3200 X35.359 Y58.714 S80
G1 F3200 X35.762 Y58.744 S80
G1 F3200 X36.163 Y58.793 S80
G1 F3200 X36.561 Y58.862 S80
G1 F3200 X36.955 Y58.951 S80
G1 F3200 X37.344 Y59.059 S80
G1 F3200 X37.728 Y59.185 S80
G1 F3200 X38.105 Y59.331 S80
G1 F3200 X38.474 Y59.494 S80
G1 F3200 X38.835 Y59.676 S80
G1 F3200 X39.186 Y59.875 S80
G1 F3200 X39.528 Y60.091 S80
G1 F3200 X39.858 Y60.324 S80
G1 F3200 X40.176 Y60.572 S80
G1 F3200 X40.482 Y60.836 S80
G1 F3200 X40.775 Y61.115 S80
G1 F3200 X41.053 Y61.407 S80
G1 F3200 X41.317 Y61.713 S80
G1 F3200 X41.566 Y62.031 S80
G1 F3200 X41.798 Y62.362 S80
G1 F3200 X42.014 Y62.703 S80
G1 F3200 X42.213 Y63.054 S80
G1 F3200 X42.395 Y63.415 S80
G1 F3200 X42.559 Y63.785 S80
G1 F3200 X42.704 Y64.161 S80
G1 F3200 X42.831 Y64.545 S80
G1 F3200 X42.939 Y64.934 S80
G1 F3200 X43.027 Y65.328 S80
G1 F3200 X43.096 Y65.726 S80
G1 F3200 X43.146 Y66.127 S80
G1 F3200 X43.175 Y66.530 S80
G1 F3200 X43.185 Y66.934 S80
M5
G0 F2000 X20.481 Y68.118
M3
G1 F3200 X20.472 Y68.476 S80
G1 F3200 X20.445 Y68.833 S80
G1 F3200 X20.402 Y69.188 S80
G1 F3200 X20.340 Y69.541 S80
G1 F3200 X20.262 Y69.890 S80
G1 F3200 X20.167 Y70.235 S80
G1 F3200 X20.054 Y70.575 S80
G1 F3200 X19.926 Y70.909 S80
G1 F3200 X19.781 Y71.236 S80
G1 F3200 X19.620 Y71.556 S80
G1 F3200 X19.443 Y71.867 S80
G1 F3200 X19.252 Y72.170 S80
G1 F3200 X19.046 Y72.462 S80
G1 F3200 X18.825 Y72.744 S80
G1 F3200 X18.592 Y73.015 S80
G1 F3200 X18.345 Y73.274 S80
G1 F3200 X18.086 Y73.521 S80
G1 F3200 X17.815 Y73.755 S80
G1 F3200 X17.533 Y73.975 S80
G1 F3200 X17.240 Y74.181 S80
G1 F3200 X16.938 Y74.373 S80
G1 F3200 X16.626 Y74.549 S80
G1 F3200 X16.306 Y74.710 S80
G1 F3200 X15.979 Y74.855 S80
G1 F3200 X15.645 Y74.984 S80
G1 F3200 X15.306 Y75.096 S80
G1 F3200 X14.961 Y75.192 S80
G1 F3200 X14.611 Y75.270 S80
G1 F3200 X14.259 Y75.331 S80
G1 F3200 X13.904 Y75.375 S80
G1 F3200 X13.547 Y75.401 S80
G1 F3200 X13.189 Y75.410 S80
G1 F3200 X12.831 Y75.401 S80
G1 F3200 X12.474 Y75.375 S80
G1 F3200 X12.119 Y75.331 S80
G1 F3200 X11.766 Y75.270 S80
G1 F3200 X11.417 Y75.192 S80
G1 F3200 X11.072 Y75.096 S80
G1 F3200 X10.732 Y74.984 S80
G1 F3200 X10.398 Y74.855 S80
G1 F3200 X10.071 Y74.710 S80
G1 F3200 X9.752 Y74.549 S80
G1 F3200 X9.440 Y74.373 S80
G1 F3200 X9.138 Y74.181 S80
G1 F3200 X8.845 Y73.975 S80
G1 F3200 X8.563 Y73.755 S80
G1 F3200 X8.292 Y73.521 S80
G1 F3200 X8.033 Y73.274 S80
G1 F3200 X7.786 Y73.015 S80
G1 F3200 X7.552 Y72.744 S80
G1 F3200 X7.332 Y72.462 S80
G1 F3200 X7.126 Y72.170 S80
G1 F3200 X6.935 Y71.867 S80
G1 F3200 X6.758 Y71.556 S80
G1 F3200 X6.597 Y71.236 S80
G1 F3200 X6.452 Y70.909 S80
G1 F3200 X6.323 Y70.575 S80
G1 F3200 X6.211 Y70.235 S80
G1 F3200 X6.116 Y69.890 S80
G1 F3200 X6.037 Y69.541 S80
G1 F3200 X5.976 Y69.188 S80
G1 F3200 X5.932 Y68.833 S80
G1 F3200 X5.906 Y68.476 S80
G1 F3200 X5.897 Y68.118 S80
G1 F3200 X5.906 Y67.761 S80
G1 F3200 X5.932 Y67.404 S80
G1 F3200 X5.976 Y67.049 S80
G1 F3200 X6.037 Y66.696 S80
G1 F3200 X6.116 Y66.347 S80
G1 F3200 X6.211 Y66.002 S80
G1 F3200 X6.323 Y65.662 S80
G1 F3200 X6.452 Y65.328 S80
G1 F3200 X6.597 Y65.001 S80
G1 F3200 X6.758 Y64.681 S80
G1 F3200 X6.935 Y64.370 S80
G1 F3200 X7.126 Y64.067 S80
G1 F3200 X7.332 Y63.775 S80
G1 F3200 X7.552 Y63.493 S80
G1 F3200 X7.786 Y63.222 S80
G1 F3200 X8.033 Y62.962 S80
G1 F3200 X8.292 Y62.716 S80
G1 F3200 X8.563 Y62.482 S80
G1 F3200 X8.845 Y62.262 S80
G1 F3200 X9.138 Y62.056 S80
G1 F3200 X9.440 Y61.864 S80
G1 F3200 X9.752 Y61.688 S80
G1 F3200 X10.071 Y61.527 S80
G1 F3200 X10.398 Y61.382 S80
G1 F3200 X10.732 Y61.253 S80
G1 F3200 X11.072 Y61.141 S80
G1 F3200 X11.417 Y61.045 S80
G1 F3200 X11.766 Y60.967 S80
G1 F3200 X12.119 Y60.906 S80
G1 F3200 X12.474 Y60.862 S80
G1 F3200 X12.831 Y60.836 S80
G1 F3200 X13.189 Y60.827 S80
G1 F3200 X13.547 Y60.836 S80
G1 F3200 X13.904 Y60.862 S80
G1 F3200 X14.259 Y60.906 S80
G1 F3200 X14.611 Y60.967 S80
G1 F3200 X14.961 Y61.045 S80
G1 F3200 X15.306 Y61.141 S80
G1 F3200 X15.645 Y61.253 S80
G1 F3200 X15.979 Y61.382 S80
G1 F3200 X16.306 Y61.527 S80
G1 F3200 X16.626 Y61.688 S80
G1 F3200 X16.938 Y61.864 S80
G1 F3200 X17.240 Y62.056 S80
G1 F3200 X17.533 Y62.262 S80
G1 F3200 X17.815 Y62.482 S80
G1 F3200 X18.086 Y62.716 S80
G1 F3200 X18.345 Y62.962 S80
G1 F3200 X18.592 Y63.222 S80
G1 F3200 X18.825 Y63.493 S80
G1 F3200 X19.046 Y63.775 S80
G1 F3200 X19.252 Y64.067 S80
G1 F3200 X19.443 Y64.370 S80
G1 F3200 X19.620 Y64.681 S80
G1 F3200 X19.781 Y65.001 S80
G1 F3200 X19.926 Y65.328 S80
G1 F3200 X20.054 Y65.662 S80
G1 F3200 X20.167 Y66.002 S80
G1 F3200 X20.262 Y66.347 S80
G1 F3200 X20.340 Y66.696 S80
G1 F3200 X20.402 Y67.049 S80
G1 F3200 X20.445 Y67.404 S80
G1 F3200 X20.472 Y67.761 S80
G1 F3200 X20.481 Y68.118 S80
M5
;End of file
