;FLAVOR:RepRap
;TIME:2006
M190 S40.000000
M104 S200.000000
M109 S200.000000
G21 ;metric value
G90 ;Absolute positioning
G28 ;X0 Y0 Z0 Home axis
G29 ;auto bed leveling
M82 ; Extruder in absolute mode
G92 E0 ; Reset extruder position
G1 F200 E3 ;extrude 3mm of feed stock
G92 E0 ;zero the extruded length again
;Generated with Cura_SteamEngine 2.1.2
;LAYER_COUNT:119
;LAYER:0
M107
G1 F1200.000000 E-1.00000
G0 F7200.00000 X80.416 Y66.619 Z0.300
;TYPE:SKIRT
G1 F1200.000 E0.00000
G1 F1800.00000 X80.884 Y66.095 E0.01652
G1 X90.371 Y56.609 E0.33197
G1 X90.639 Y56.374 E0.34035
G1 X91.859 Y55.436 E0.37654
G1 X92.320 Y55.149 E0.38931
G1 X92.946 Y54.847 E0.40565
G1 X93.584 Y54.588 E0.42184
G1 X94.080 Y54.421 E0.43414
G1 X94.423 Y54.330 E0.44249
G1 X95.112 Y54.199 E0.45898
G1 X95.785 Y54.116 E0.47492
G1 X96.486 Y54.076 E0.49143
G1 X113.700 Y54.076 E0.89619
G1 X114.167 Y54.116 E0.90721
G1 X114.620 Y54.235 E0.91822
G1 X115.047 Y54.428 E0.92924
G1 X115.434 Y54.692 E0.94026
G1 X115.645 Y54.881 E0.94692
G1 X115.845 Y55.081 E0.95357
G1 X116.146 Y55.440 E0.96458
G1 X116.383 Y55.844 E0.97560
G1 X116.548 Y56.283 E0.98662
G1 X116.635 Y56.743 E0.99763
G1 X116.650 Y57.026 E1.00429
G1 X116.650 Y78.426 E1.50748
G1 X116.610 Y78.893 E1.51850
G1 X116.491 Y79.346 E1.52951
G1 X116.298 Y79.773 E1.54053
G1 X116.034 Y80.160 E1.55154
G1 X115.845 Y80.371 E1.55820
G1 X115.645 Y80.571 E1.56486
G1 X115.286 Y80.872 E1.57587
G1 X114.882 Y81.109 E1.58688
G1 X114.443 Y81.274 E1.59791
G1 X113.983 Y81.361 E1.60892
G1 X113.700 Y81.376 E1.61558
G1 X107.478 Y81.376 E1.76188
G1 X107.396 Y81.788 E1.77176
G1 X107.266 Y82.238 E1.78277
G1 X107.165 Y82.468 E1.78868
G1 X106.918 Y82.970 E1.80183
G1 X106.805 Y83.300 E1.81004
G1 X106.670 Y83.626 E1.81833
G1 X106.439 Y84.096 E1.83065
G1 X106.257 Y84.412 E1.83922
G1 X105.966 Y84.847 E1.85153
G1 X105.749 Y85.129 E1.85989
G1 X105.405 Y85.522 E1.87217
G1 X105.148 Y85.780 E1.88074
G1 X104.772 Y86.109 E1.89248
G1 X104.355 Y86.495 E1.90585
G1 X104.013 Y86.764 E1.91608
G1 X103.578 Y87.054 E1.92837
G1 X103.268 Y87.233 E1.93679
G1 X102.848 Y87.440 E1.94780
G1 X102.587 Y87.584 E1.95481
G1 X102.136 Y87.783 E1.96640
G1 X101.640 Y87.950 E1.97870
G1 X101.301 Y88.041 E1.98696
G1 X100.060 Y88.289 E2.01671
G1 X99.700 Y88.336 E2.02525
G1 X99.000 Y88.376 E2.04173
G1 X94.632 Y88.376 E2.14444
G1 X94.302 Y88.408 E2.15224
G1 X93.959 Y88.430 E2.16032
G1 X93.804 Y88.461 E2.16403
G1 X93.632 Y88.520 E2.16831
G1 X93.163 Y88.746 E2.18055
G1 X92.606 Y88.974 E2.19470
G1 X92.477 Y89.060 E2.19835
G1 X92.437 Y89.091 E2.19954
G1 X92.201 Y89.298 E2.20692
G1 X92.072 Y89.437 E2.21138
G1 X91.862 Y89.678 E2.21889
G1 X91.708 Y89.909 E2.22542
G1 X91.540 Y90.186 E2.23304
G1 X91.436 Y90.396 E2.23855
G1 X91.257 Y90.914 E2.25144
G1 X91.225 Y91.071 E2.25520
G1 X91.191 Y91.554 E2.26659
G1 X91.150 Y91.892 E2.27459
G1 X91.150 Y96.137 E2.37441
G1 X91.189 Y96.267 E2.37760
G1 X91.247 Y96.829 E2.39088
G1 X91.241 Y98.228 E2.42378
G1 X91.191 Y98.905 E2.43974
G1 X91.150 Y99.242 E2.44772
G1 X91.151 Y107.829 E2.64963
G1 X91.180 Y108.293 E2.66056
G1 X91.223 Y108.484 E2.66517
G1 X91.247 Y108.849 E2.67377
G1 X91.247 Y112.322 E2.75543
G1 X91.207 Y112.789 E2.76645
G1 X91.151 Y113.003 E2.77165
G1 X91.150 Y115.181 E2.82286
G1 X91.173 Y115.551 E2.83158
G1 X91.299 Y115.954 E2.84151
G1 X91.369 Y116.227 E2.84813
G1 X91.438 Y116.566 E2.85627
G1 X91.493 Y116.731 E2.86036
G1 X91.523 Y116.791 E2.86194
G1 X91.928 Y117.317 E2.87754
G1 X92.122 Y117.607 E2.88575
G1 X92.223 Y117.722 E2.88935
G1 X92.356 Y117.838 E2.89350
G1 X92.915 Y118.218 E2.90939
G1 X93.085 Y118.302 E2.91385
G1 X93.411 Y118.425 E2.92204
G1 X93.679 Y118.517 E2.92870
G1 X93.900 Y118.561 E2.93400
G1 X94.238 Y118.601 E2.94201
G1 X94.596 Y118.625 E2.95044
G1 X99.179 Y118.631 E3.05820
G1 X99.876 Y118.682 E3.07464
G1 X100.552 Y118.777 E3.09069
G1 X101.066 Y118.880 E3.10301
G1 X101.413 Y118.973 E3.11146
G1 X102.071 Y119.203 E3.12785
G1 X102.699 Y119.469 E3.14389
G1 X103.168 Y119.701 E3.15619
G1 X103.567 Y119.942 E3.16715
G1 X103.826 Y120.130 E3.17467
G1 X104.214 Y120.390 E3.18566
G1 X104.499 Y120.609 E3.19411
G1 X104.892 Y120.954 E3.20640
G1 X105.192 Y121.263 E3.21653
G1 X105.550 Y121.694 E3.22970
G1 X105.885 Y122.075 E3.24163
G1 X106.107 Y122.365 E3.25022
G1 X106.397 Y122.800 E3.26251
G1 X106.576 Y123.110 E3.27093
G1 X106.807 Y123.579 E3.28322
G1 X106.943 Y123.905 E3.29153
G1 X107.112 Y124.400 E3.30383
G1 X107.207 Y124.758 E3.31254
G1 X107.272 Y125.087 E3.32042
G1 X107.453 Y125.620 E3.33366
G1 X107.565 Y126.075 E3.34468
G1 X107.593 Y126.327 E3.35064
G1 X107.649 Y127.274 E3.37294
G1 X107.649 Y129.624 E3.42820
G1 X113.700 Y129.625 E3.57048
G1 X114.167 Y129.665 E3.58150
G1 X114.621 Y129.784 E3.59253
G1 X115.047 Y129.978 E3.60354
G1 X115.435 Y130.241 E3.61456
G1 X115.645 Y130.430 E3.62120
G1 X115.845 Y130.630 E3.62786
G1 X116.146 Y130.989 E3.63887
G1 X116.383 Y131.393 E3.64988
G1 X116.548 Y131.832 E3.66091
G1 X116.635 Y132.292 E3.67192
G1 X116.650 Y132.575 E3.67858
G1 X116.650 Y137.975 E3.80555
G1 X116.610 Y138.442 E3.81657
G1 X116.491 Y138.895 E3.82759
G1 X116.298 Y139.322 E3.83861
G1 X116.034 Y139.709 E3.84962
G1 X115.840 Y139.924 E3.85643
G1 X115.640 Y140.123 E3.86306
G1 X115.281 Y140.424 E3.87408
G1 X114.875 Y140.660 E3.88512
G1 X114.436 Y140.824 E3.89614
G1 X113.976 Y140.910 E3.90714
G1 X113.700 Y140.924 E3.91364
G1 X87.000 Y140.925 E4.54144
G1 X86.698 Y140.908 E4.54856
G1 X85.867 Y140.816 E4.56822
G1 X85.375 Y140.752 E4.57988
G1 X84.957 Y140.664 E4.58993
G1 X84.206 Y140.444 E4.60833
G1 X83.982 Y140.368 E4.61389
G1 X83.635 Y140.233 E4.62264
G1 X83.258 Y140.052 E4.63248
G1 X82.198 Y139.434 E4.66133
G1 X81.787 Y139.159 E4.67295
G1 X81.507 Y138.945 E4.68124
G1 X81.113 Y138.601 E4.69354
G1 X80.808 Y138.287 E4.70383
G1 X80.380 Y137.773 E4.71956
G1 X79.890 Y137.161 E4.73799
G1 X79.572 Y136.660 E4.75195
G1 X79.037 Y135.566 E4.78058
G1 X78.846 Y135.107 E4.79227
G1 X78.713 Y134.700 E4.80234
G1 X78.528 Y133.939 E4.82075
G1 X78.456 Y133.473 E4.83184
G1 X78.426 Y133.031 E4.84226
G1 X78.374 Y132.634 E4.85167
G1 X78.350 Y132.274 E4.86015
G1 X78.356 Y72.029 E6.27671
G1 X78.407 Y71.258 E6.29488
G1 X78.455 Y70.898 E6.30342
G1 X78.596 Y70.223 E6.31963
G1 X78.780 Y69.556 E6.33590
G1 X78.950 Y69.061 E6.34820
G1 X79.261 Y68.432 E6.36470
G1 X79.572 Y67.964 E6.37792
G1 X79.727 Y67.650 E6.38615
G1 X79.906 Y67.339 E6.39459
G1 X80.196 Y66.905 E6.40686
G1 X80.416 Y66.619 E6.41534
G0 F7200.00000 X80.792 Y66.949
G1 F1800.000 X81.237 Y66.449 E6.43108
G1 X90.724 Y56.963 E6.74653
G1 X90.944 Y56.770 E6.75342
G1 X92.164 Y55.832 E6.78960
G1 X92.541 Y55.598 E6.80003
G1 X93.138 Y55.308 E6.81564
G1 X93.744 Y55.062 E6.83102
G1 X94.240 Y54.895 E6.84332
G1 X94.520 Y54.820 E6.85014
G1 X95.177 Y54.694 E6.86587
G1 X95.818 Y54.615 E6.88105
G1 X96.486 Y54.576 E6.89679
G1 X113.700 Y54.576 E7.30154
G1 X114.122 Y54.616 E7.31151
G1 X114.529 Y54.734 E7.32148
G1 X114.906 Y54.927 E7.33143
G1 X115.291 Y55.235 E7.34303
G1 X115.491 Y55.435 E7.34968
G1 X115.761 Y55.762 E7.35965
G1 X115.965 Y56.133 E7.36960
G1 X116.096 Y56.536 E7.37957
G1 X116.150 Y57.026 E7.39116
G1 X116.150 Y78.426 E7.89434
G1 X116.110 Y78.848 E7.90431
G1 X115.992 Y79.255 E7.91427
G1 X115.799 Y79.632 E7.92423
G1 X115.491 Y80.017 E7.93582
G1 X115.291 Y80.217 E7.94247
G1 X114.964 Y80.487 E7.95245
G1 X114.593 Y80.691 E7.96240
G1 X114.190 Y80.822 E7.97236
G1 X113.700 Y80.876 E7.98396
G1 X107.049 Y80.876 E8.14034
G1 X107.008 Y81.178 E8.14751
G1 X106.906 Y81.691 E8.15981
G1 X106.717 Y82.247 E8.17361
G1 X106.455 Y82.779 E8.18756
G1 X106.332 Y83.139 E8.19650
G1 X106.221 Y83.405 E8.20328
G1 X105.990 Y83.875 E8.21559
G1 X105.841 Y84.134 E8.22262
G1 X105.550 Y84.569 E8.23493
G1 X105.373 Y84.800 E8.24177
G1 X105.029 Y85.193 E8.25405
G1 X104.818 Y85.404 E8.26107
G1 X104.455 Y85.721 E8.27240
G1 X104.016 Y86.128 E8.28647
G1 X103.736 Y86.348 E8.29485
G1 X103.301 Y86.638 E8.30714
G1 X103.047 Y86.784 E8.31403
G1 X102.643 Y86.983 E8.32462
G1 X102.346 Y87.147 E8.33259
G1 X101.976 Y87.309 E8.34209
G1 X101.480 Y87.476 E8.35440
G1 X101.203 Y87.550 E8.36114
G1 X99.962 Y87.798 E8.39090
G1 X99.668 Y87.837 E8.39787
G1 X99.000 Y87.876 E8.41360
G1 X94.612 Y87.876 E8.51678
G1 X94.269 Y87.909 E8.52488
G1 X93.899 Y87.933 E8.53360
G1 X93.669 Y87.979 E8.53911
G1 X93.449 Y88.053 E8.54457
G1 X92.974 Y88.283 E8.55698
G1 X92.369 Y88.530 E8.57235
G1 X92.194 Y88.647 E8.57730
G1 X92.107 Y88.715 E8.57989
G1 X91.851 Y88.940 E8.58791
G1 X91.702 Y89.101 E8.59306
G1 X91.466 Y89.370 E8.60148
G1 X91.291 Y89.633 E8.60891
G1 X91.101 Y89.947 E8.61754
G1 X90.970 Y90.211 E8.62447
G1 X90.775 Y90.776 E8.63852
G1 X90.729 Y91.004 E8.64399
G1 X90.695 Y91.494 E8.65554
G1 X90.650 Y91.865 E8.66433
G1 X90.650 Y96.197 E8.76618
G1 X90.677 Y96.272 E8.76806
G1 X90.747 Y96.829 E8.78126
G1 X90.742 Y98.194 E8.81335
G1 X90.695 Y98.844 E8.82868
G1 X90.650 Y99.214 E8.83744
G1 X90.651 Y107.845 E9.04038
G1 X90.684 Y108.364 E9.05261
G1 X90.732 Y108.591 E9.05807
G1 X90.747 Y108.849 E9.06414
G1 X90.747 Y112.322 E9.14581
G1 X90.707 Y112.744 E9.15577
G1 X90.651 Y112.938 E9.16052
G1 X90.650 Y115.197 E9.21364
G1 X90.678 Y115.641 E9.22410
G1 X90.822 Y116.103 E9.23548
G1 X90.879 Y116.326 E9.24089
G1 X90.954 Y116.699 E9.24983
G1 X91.030 Y116.924 E9.25542
G1 X91.094 Y117.054 E9.25883
G1 X91.512 Y117.595 E9.27490
G1 X91.722 Y117.908 E9.28376
G1 X91.873 Y118.081 E9.28916
G1 X92.048 Y118.233 E9.29461
G1 X92.659 Y118.649 E9.31199
G1 X92.893 Y118.765 E9.31813
G1 X93.222 Y118.889 E9.32640
G1 X93.549 Y119.000 E9.33452
G1 X93.834 Y119.057 E9.34135
G1 X94.184 Y119.099 E9.34964
G1 X94.578 Y119.125 E9.35893
G1 X99.147 Y119.130 E9.46636
G1 X99.812 Y119.178 E9.48204
G1 X100.454 Y119.267 E9.49728
G1 X100.968 Y119.370 E9.50960
G1 X101.252 Y119.446 E9.51652
G1 X101.880 Y119.665 E9.53215
G1 X102.478 Y119.917 E9.54741
G1 X102.947 Y120.149 E9.55972
G1 X103.273 Y120.347 E9.56868
G1 X103.537 Y120.539 E9.57636
G1 X103.936 Y120.806 E9.58765
G1 X104.169 Y120.985 E9.59456
G1 X104.562 Y121.330 E9.60685
G1 X104.808 Y121.582 E9.61513
G1 X105.178 Y122.027 E9.62874
G1 X105.510 Y122.405 E9.64057
G1 X105.691 Y122.642 E9.64758
G1 X105.981 Y123.077 E9.65987
G1 X106.127 Y123.331 E9.66676
G1 X106.358 Y123.800 E9.67906
G1 X106.469 Y124.067 E9.68586
G1 X106.638 Y124.562 E9.69815
G1 X106.717 Y124.854 E9.70527
G1 X106.790 Y125.225 E9.71416
G1 X106.979 Y125.781 E9.72797
G1 X107.094 Y126.359 E9.74182
G1 X107.149 Y127.275 E9.76340
G1 X107.150 Y130.124 E9.83039
G1 X113.700 Y130.125 E9.98440
G1 X114.122 Y130.165 E9.99437
G1 X114.529 Y130.283 E10.00433
G1 X114.907 Y130.476 E10.01431
G1 X115.291 Y130.784 E10.02588
G1 X115.491 Y130.984 E10.03254
G1 X115.761 Y131.311 E10.04251
G1 X115.965 Y131.682 E10.05246
G1 X116.096 Y132.085 E10.06243
G1 X116.150 Y132.575 E10.07402
G1 X116.150 Y137.975 E10.20099
G1 X116.110 Y138.397 E10.21096
G1 X115.992 Y138.804 E10.22092
G1 X115.799 Y139.181 E10.23088
G1 X115.487 Y139.570 E10.24260
G1 X115.287 Y139.769 E10.24924
G1 X114.960 Y140.038 E10.25919
G1 X114.588 Y140.241 E10.26916
G1 X114.184 Y140.371 E10.27914
G1 X113.700 Y140.424 E10.29058
G1 X87.000 Y140.425 E10.91839
G1 X86.753 Y140.411 E10.92420
G1 X85.932 Y140.320 E10.94363
G1 X85.440 Y140.256 E10.95529
G1 X85.097 Y140.184 E10.96353
G1 X84.163 Y139.902 E10.98647
G1 X83.816 Y139.767 E10.99523
G1 X83.508 Y139.619 E11.00326
G1 X82.476 Y139.018 E11.03134
G1 X82.065 Y138.743 E11.04297
G1 X81.836 Y138.568 E11.04975
G1 X81.442 Y138.224 E11.06205
G1 X81.192 Y137.968 E11.07046
G1 X80.771 Y137.460 E11.08597
G1 X80.281 Y136.848 E11.10441
G1 X80.020 Y136.439 E11.11582
G1 X79.499 Y135.373 E11.14371
G1 X79.308 Y134.914 E11.15540
G1 X79.199 Y134.581 E11.16364
G1 X79.014 Y133.820 E11.18206
G1 X78.955 Y133.439 E11.19112
G1 X78.925 Y132.995 E11.20159
G1 X78.869 Y132.569 E11.21169
G1 X78.850 Y132.274 E11.21864
G1 X78.855 Y72.062 E12.63442
G1 X78.906 Y71.291 E12.65259
G1 X78.945 Y70.996 E12.65958
G1 X79.079 Y70.351 E12.67507
G1 X79.253 Y69.718 E12.69051
G1 X79.423 Y69.223 E12.70281
G1 X79.677 Y68.709 E12.71629
G1 X80.005 Y68.215 E12.73024
G1 X80.175 Y67.871 E12.73926
G1 X80.322 Y67.617 E12.74616
G1 X80.612 Y67.183 E12.75843
G1 X80.792 Y66.949 E12.76538
G0 F7200.00000 X81.028 Y67.461
G1 F1800.000 X81.168 Y67.278 E12.77079
G1 X81.591 Y66.802 E12.78577
G1 X91.078 Y57.316 E13.10122
G1 X91.248 Y57.167 E13.10653
G1 X92.468 Y56.229 E13.14272
G1 X92.762 Y56.046 E13.15086
G1 X93.330 Y55.770 E13.16571
G1 X93.904 Y55.535 E13.18029
G1 X94.400 Y55.368 E13.19260
G1 X94.617 Y55.310 E13.19788
G1 X95.243 Y55.190 E13.21287
G1 X95.850 Y55.114 E13.22725
G1 X96.486 Y55.076 E13.24223
G1 X113.700 Y55.076 E13.64699
G1 X114.071 Y55.116 E13.65576
G1 X114.426 Y55.234 E13.66456
G1 X114.748 Y55.424 E13.67335
G1 X114.937 Y55.589 E13.67925
G1 X115.137 Y55.789 E13.68590
G1 X115.372 Y56.079 E13.69468
G1 X115.539 Y56.413 E13.70346
G1 X115.632 Y56.775 E13.71224
G1 X115.650 Y57.026 E13.71816
G1 X115.650 Y78.426 E14.22134
G1 X115.610 Y78.797 E14.23012
G1 X115.492 Y79.152 E14.23891
G1 X115.302 Y79.474 E14.24771
G1 X115.137 Y79.663 E14.25360
G1 X114.937 Y79.863 E14.26026
G1 X114.647 Y80.098 E14.26903
G1 X114.313 Y80.265 E14.27781
G1 X113.951 Y80.358 E14.28660
G1 X113.700 Y80.376 E14.29252
G1 X106.607 Y80.376 E14.45930
G1 X106.600 Y80.473 E14.46158
G1 X106.517 Y81.080 E14.47599
G1 X106.415 Y81.593 E14.48829
G1 X106.268 Y82.026 E14.49904
G1 X105.990 Y82.590 E14.51382
G1 X105.858 Y82.977 E14.52344
G1 X105.773 Y83.185 E14.52872
G1 X105.542 Y83.655 E14.54104
G1 X105.426 Y83.856 E14.54649
G1 X105.135 Y84.291 E14.55880
G1 X104.997 Y84.471 E14.56413
G1 X104.653 Y84.864 E14.57641
G1 X104.489 Y85.028 E14.58186
G1 X104.095 Y85.373 E14.59418
G1 X103.676 Y85.761 E14.60761
G1 X103.459 Y85.932 E14.61410
G1 X103.024 Y86.222 E14.62640
G1 X102.826 Y86.336 E14.63177
G1 X102.396 Y86.548 E14.64304
G1 X102.104 Y86.709 E14.65088
G1 X101.816 Y86.836 E14.65828
G1 X101.320 Y87.003 E14.67059
G1 X101.105 Y87.060 E14.67582
G1 X99.864 Y87.308 E14.70557
G1 X99.635 Y87.338 E14.71100
G1 X99.000 Y87.376 E14.72596
G1 X94.584 Y87.376 E14.82980
G1 X94.237 Y87.410 E14.83799
G1 X93.828 Y87.437 E14.84763
G1 X93.547 Y87.493 E14.85437
G1 X93.258 Y87.591 E14.86154
G1 X92.785 Y87.820 E14.87390
G1 X92.135 Y88.085 E14.89041
G1 X91.894 Y88.247 E14.89723
G1 X91.795 Y88.324 E14.90018
G1 X91.501 Y88.582 E14.90938
G1 X91.339 Y88.757 E14.91499
G1 X91.068 Y89.066 E14.92465
G1 X90.856 Y89.384 E14.93364
G1 X90.663 Y89.703 E14.94240
G1 X90.511 Y90.010 E14.95046
G1 X90.291 Y90.648 E14.96633
G1 X90.232 Y90.938 E14.97329
G1 X90.198 Y91.434 E14.98498
G1 X90.150 Y91.830 E14.99436
G1 X90.150 Y96.273 E15.09883
G1 X90.175 Y96.333 E15.10035
G1 X90.247 Y96.829 E15.11214
G1 X90.243 Y98.160 E15.14343
G1 X90.198 Y98.784 E15.15814
G1 X90.150 Y99.179 E15.16750
G1 X90.151 Y107.861 E15.37164
G1 X90.190 Y108.475 E15.38611
G1 X90.247 Y108.849 E15.39500
G1 X90.247 Y112.322 E15.47667
G1 X90.207 Y112.693 E15.48544
G1 X90.151 Y112.862 E15.48963
G1 X90.150 Y115.213 E15.54491
G1 X90.183 Y115.740 E15.55732
G1 X90.389 Y116.425 E15.57414
G1 X90.471 Y116.831 E15.58388
G1 X90.565 Y117.110 E15.59080
G1 X90.669 Y117.320 E15.59631
G1 X91.097 Y117.873 E15.61275
G1 X91.325 Y118.213 E15.62238
G1 X91.520 Y118.436 E15.62934
G1 X91.741 Y118.629 E15.63624
G1 X92.412 Y119.085 E15.65532
G1 X92.693 Y119.224 E15.66269
G1 X93.069 Y119.366 E15.67214
G1 X93.417 Y119.484 E15.68078
G1 X93.740 Y119.549 E15.68853
G1 X94.150 Y119.598 E15.69824
G1 X94.558 Y119.625 E15.70785
G1 X99.114 Y119.629 E15.81498
G1 X99.747 Y119.674 E15.82990
G1 X100.356 Y119.757 E15.84435
G1 X100.870 Y119.860 E15.85668
G1 X101.090 Y119.920 E15.86204
G1 X101.690 Y120.127 E15.87696
G1 X102.256 Y120.365 E15.89140
G1 X102.725 Y120.597 E15.90370
G1 X102.979 Y120.751 E15.91069
G1 X103.248 Y120.947 E15.91851
G1 X103.658 Y121.221 E15.93011
G1 X103.840 Y121.361 E15.93551
G1 X104.233 Y121.706 E15.94780
G1 X104.424 Y121.902 E15.95424
G1 X104.808 Y122.364 E15.96836
G1 X105.134 Y122.735 E15.97998
G1 X105.275 Y122.919 E15.98543
G1 X105.565 Y123.354 E15.99772
G1 X105.679 Y123.552 E16.00309
G1 X105.910 Y124.021 E16.01539
G1 X105.996 Y124.229 E16.02068
G1 X106.165 Y124.724 E16.03298
G1 X106.226 Y124.951 E16.03850
G1 X106.304 Y125.349 E16.04804
